.github/images/chasten-logo.svg

<?xml version="1.0" encoding="UTF-8" standalone="no"?>
<svg
   width="636.40277"
   zoomAndPan="magnify"
   viewBox="0 0 477.30208 140.49609"
   height="187.32812"
   preserveAspectRatio="xMidYMid"
   version="1.0"
   id="svg67"
   sodipodi:docname="chasten-logo.svg"
   inkscape:version="1.2.2 (b0a8486541, 2022-12-01)"
   xmlns:inkscape="http://www.inkscape.org/namespaces/inkscape"
   xmlns:sodipodi="http://sodipodi.sourceforge.net/DTD/sodipodi-0.dtd"
   xmlns="http://www.w3.org/2000/svg"
   xmlns:svg="http://www.w3.org/2000/svg">
  <sodipodi:namedview
     id="namedview69"
     pagecolor="#ffffff"
     bordercolor="#666666"
     borderopacity="1.0"
     inkscape:showpageshadow="2"
     inkscape:pageopacity="0.0"
     inkscape:pagecheckerboard="0"
     inkscape:deskcolor="#d1d1d1"
     showgrid="false"
     inkscape:zoom="0.81944444"
     inkscape:cx="318.50847"
     inkscape:cy="93.966102"
     inkscape:window-width="1916"
     inkscape:window-height="1037"
     inkscape:window-x="0"
     inkscape:window-y="20"
     inkscape:window-maximized="1"
     inkscape:current-layer="svg67" />
  <defs
     id="defs7">
    <g
       id="g2" />
    <clipPath
       id="cdd620850c">
      <path
         d="M 192.34375,37.589844 H 314.71484 V 178.08594 H 192.34375 Z m 0,0"
         clip-rule="nonzero"
         id="path4" />
    </clipPath>
  </defs>
  <g
     clip-path="url(#cdd620850c)"
     id="g11"
     transform="translate(-12.676609,-37.589844)">
    <path
       fill="#e45c08"
       d="m 192.35156,79.871094 v 31.531246 l 12.42578,7.13672 63.82422,36.64844 -15.07422,8.63281 -48.75,-27.96484 -12.42578,-7.13281 v 14.26562 l 61.17578,35.09766 12.42188,-7.13282 8.83594,-5.0664 6.23828,-3.56641 3.11718,-1.75781 3.06641,-1.80859 6.23828,-3.56641 15.07422,-8.63281 5.82031,-3.35938 0.36328,-0.62109 v -38.30469 l -12.42187,-7.132811 -63.82422,-36.648438 15.07031,-8.632812 48.75391,28.015625 12.42187,7.132812 V 72.738281 l -61.17578,-35.148437 -12.42187,7.132812 -8.83594,5.066406 -6.23437,3.566407 -3.06641,1.808593 -3.12109,1.757813 -6.23829,3.566406 -15.07031,8.683594 -5.82031,3.359375 -0.36719,0.621094 z m 109.92969,31.531246 -6.18359,-3.5664 -7.07032,-4.03125 -56.75781,-32.61719 v 17.316406 l 33.67969,19.332034 8.83594,5.0664 12.42187,7.13282 v 24.45312 l 8.89063,-5.06641 6.18359,-3.5664 z m -97.50391,-7.13281 6.1836,3.56641 4.21093,2.3789 59.61329,34.27344 v -17.3164 l -33.67969,-19.33594 -8.83594,-5.0625 -12.42187,-7.136721 V 71.1875 l -8.88672,5.117188 -6.1836,3.566406 z m 0,0"
       fill-opacity="1"
       fill-rule="evenodd"
       id="path9" />
  </g>
  <g
     fill="#323b60"
     fill-opacity="1"
     id="g19"
     transform="translate(-12.676609,-37.589844)">
    <g
       transform="translate(9.918797,144.20813)"
       id="g17">
      <g
         id="g15">
        <path
           d="M 55.902344,0 V -16.125 H 20.472656 V -54.523438 H 55.902344 V -70.753906 H 2.757812 V 0 Z m 0,0"
           id="path13" />
      </g>
    </g>
  </g>
  <g
     fill="#323b60"
     fill-opacity="1"
     id="g27"
     transform="translate(-12.676609,-37.589844)">
    <g
       transform="translate(67.943543,144.20813)"
       id="g25">
      <g
         id="g23">
        <path
           d="M 55.902344,0 V -70.753906 H 38.1875 v 27.367187 H 20.472656 V -70.753906 H 2.757812 V 0 H 20.472656 V -27.792969 H 38.1875 V 0 Z m 0,0"
           id="path21" />
      </g>
    </g>
  </g>
  <g
     fill="#e45c08"
     fill-opacity="1"
     id="g35"
     transform="translate(-12.676609,-37.589844)">
    <g
       transform="translate(126.60238,144.20813)"
       id="g33">
      <g
         id="g31">
        <path
           d="M 55.902344,0 V -70.753906 H 2.757812 V 0 H 20.472656 V -19.730469 H 38.1875 V 0 Z M 38.1875,-35.855469 H 20.472656 V -54.523438 H 38.1875 Z m 0,0"
           id="path29" />
      </g>
    </g>
  </g>
  <g
     fill="#323b60"
     fill-opacity="1"
     id="g41"
     transform="translate(-12.676609,-37.589844)">
    <g
       transform="translate(185.25472,144.20813)"
       id="g39">
      <g
         id="g37" />
    </g>
  </g>
  <g
     fill="#e45c08"
     fill-opacity="1"
     id="g49"
     transform="translate(-12.676609,-37.589844)">
    <g
       transform="translate(320.47103,144.20813)"
       id="g47">
      <g
         id="g45">
        <path
           d="M 54.738281,-54.523438 V -70.753906 H 1.589844 v 16.230468 H 19.414062 V 0 h 17.714844 v -54.523438 z m 0,0"
           id="path43" />
      </g>
    </g>
  </g>
  <g
     fill="#323b60"
     fill-opacity="1"
     id="g57"
     transform="translate(-12.676609,-37.589844)">
    <g
       transform="translate(376.79134,144.20813)"
       id="g55">
      <g
         id="g53">
        <path
           d="m 55.691406,0 v -16.125 h -35.21875 v -11.667969 h 35.21875 v -15.59375 h -35.21875 v -11.136719 h 35.21875 V -70.753906 H 2.757812 V 0 Z m 0,0"
           id="path51" />
      </g>
    </g>
  </g>
  <g
     fill="#323b60"
     fill-opacity="1"
     id="g65"
     transform="translate(-12.676609,-37.589844)">
    <g
       transform="translate(435.2404,144.20813)"
       id="g63">
      <g
         id="g61">
        <path
           d="M 54.738281,0 V -70.753906 H 1.589844 v 16.230468 H 5.09375 V 0 h 14.210938 v -54.523438 h 17.71875 V 0 Z m 0,0"
           id="path59" />
      </g>
    </g>
  </g>
</svg>

<svg xmlns="http://www.w3.org/2000/svg" xmlns:xlink="http://www.w3.org/1999/xlink" width="672" zoomAndPan="magnify" viewBox="0 0 504 215.999996" height="288" preserveAspectRatio="xMidYMid meet" version="1.0"><defs><g/><clipPath id="cdd620850c"><path d="M 192.34375 37.589844 L 314.714844 37.589844 L 314.714844 178.085938 L 192.34375 178.085938 Z M 192.34375 37.589844 " clip-rule="nonzero"/></clipPath></defs><g clip-path="url(#cdd620850c)"><path fill="#e45c08" d="M 192.351562 79.871094 L 192.351562 111.402344 L 204.777344 118.539062 L 268.601562 155.1875 L 253.527344 163.820312 L 204.777344 135.855469 L 192.351562 128.722656 L 192.351562 142.988281 L 253.527344 178.085938 L 265.949219 170.953125 L 274.785156 165.886719 L 281.023438 162.320312 L 284.140625 160.5625 L 287.207031 158.753906 L 293.445312 155.1875 L 308.519531 146.554688 L 314.339844 143.195312 L 314.703125 142.574219 L 314.703125 104.269531 L 302.28125 97.136719 L 238.457031 60.488281 L 253.527344 51.855469 L 302.28125 79.871094 L 314.703125 87.003906 L 314.703125 72.738281 L 253.527344 37.589844 L 241.105469 44.722656 L 232.269531 49.789062 L 226.035156 53.355469 L 222.96875 55.164062 L 219.847656 56.921875 L 213.609375 60.488281 L 198.539062 69.171875 L 192.71875 72.53125 L 192.351562 73.152344 Z M 302.28125 111.402344 L 296.097656 107.835938 L 289.027344 103.804688 L 232.269531 71.1875 L 232.269531 88.503906 L 265.949219 107.835938 L 274.785156 112.902344 L 287.207031 120.035156 L 287.207031 144.488281 L 296.097656 139.421875 L 302.28125 135.855469 Z M 204.777344 104.269531 L 210.960938 107.835938 L 215.171875 110.214844 L 274.785156 144.488281 L 274.785156 127.171875 L 241.105469 107.835938 L 232.269531 102.773438 L 219.847656 95.636719 L 219.847656 71.1875 L 210.960938 76.304688 L 204.777344 79.871094 Z M 204.777344 104.269531 " fill-opacity="1" fill-rule="evenodd"/></g><g fill="#323b60" fill-opacity="1"><g transform="translate(9.918797, 144.208134)"><g><path d="M 55.902344 0 L 55.902344 -16.125 L 20.472656 -16.125 L 20.472656 -54.523438 L 55.902344 -54.523438 L 55.902344 -70.753906 L 2.757812 -70.753906 L 2.757812 0 Z M 55.902344 0 "/></g></g></g><g fill="#323b60" fill-opacity="1"><g transform="translate(67.943543, 144.208134)"><g><path d="M 55.902344 0 L 55.902344 -70.753906 L 38.1875 -70.753906 L 38.1875 -43.386719 L 20.472656 -43.386719 L 20.472656 -70.753906 L 2.757812 -70.753906 L 2.757812 0 L 20.472656 0 L 20.472656 -27.792969 L 38.1875 -27.792969 L 38.1875 0 Z M 55.902344 0 "/></g></g></g><g fill="#e45c08" fill-opacity="1"><g transform="translate(126.602383, 144.208134)"><g><path d="M 55.902344 0 L 55.902344 -70.753906 L 2.757812 -70.753906 L 2.757812 0 L 20.472656 0 L 20.472656 -19.730469 L 38.1875 -19.730469 L 38.1875 0 Z M 38.1875 -35.855469 L 20.472656 -35.855469 L 20.472656 -54.523438 L 38.1875 -54.523438 Z M 38.1875 -35.855469 "/></g></g></g><g fill="#323b60" fill-opacity="1"><g transform="translate(185.254723, 144.208134)"><g/></g></g><g fill="#e45c08" fill-opacity="1"><g transform="translate(320.471031, 144.208134)"><g><path d="M 54.738281 -54.523438 L 54.738281 -70.753906 L 1.589844 -70.753906 L 1.589844 -54.523438 L 19.414062 -54.523438 L 19.414062 0 L 37.128906 0 L 37.128906 -54.523438 Z M 54.738281 -54.523438 "/></g></g></g><g fill="#323b60" fill-opacity="1"><g transform="translate(376.79134, 144.208134)"><g><path d="M 55.691406 0 L 55.691406 -16.125 L 20.472656 -16.125 L 20.472656 -27.792969 L 55.691406 -27.792969 L 55.691406 -43.386719 L 20.472656 -43.386719 L 20.472656 -54.523438 L 55.691406 -54.523438 L 55.691406 -70.753906 L 2.757812 -70.753906 L 2.757812 0 Z M 55.691406 0 "/></g></g></g><g fill="#323b60" fill-opacity="1"><g transform="translate(435.240399, 144.208134)"><g><path d="M 54.738281 0 L 54.738281 -70.753906 L 1.589844 -70.753906 L 1.589844 -54.523438 L 5.09375 -54.523438 L 5.09375 0 L 19.304688 0 L 19.304688 -54.523438 L 37.023438 -54.523438 L 37.023438 0 Z M 54.738281 0 "/></g></g></g></svg>
